X:1
T:Königin in den Himmeln
T:André Vierendeels
T:Melody by Georg Vogler (1625)(Soprano voice) 
T:Source : Catechismus---Würzburg---J.Volmari---1652. Editor : André Vierendeels (22/09/17).
T:Notes : Original clefs : C1, other voices supplied editorially Original note values have been halved Text Middle German
T:Königin in den Himmeln
T:©
T:©
C:André Vierendeels
Z:©
%%score [ 1 2 3 ]
L:1/8
Q:1/4=100
M:2/2
K:F
V:1 treble nm="Soprano" snm="S"
V:2 treble nm="Alto" snm="A"
V:3 bass nm="Bass" snm="B"
V:1
 F2 F2 c4 | A4 F4 | G3 A B4 | !fermata!A4 c4 | d4 c3 B | A4 !fermata!F4 | B4 G4 | A4 F4 | %8
w: Kö- ni- gin|in den|Him- * *|meln, frew|dich Ma- *|ri- a,|den du|hast em-|
 G4 F2 F2 | G4 F2 E2 | D2 E2 (F2 E2) | D4 !fermata!C4 | c4 A4 | F4 B4 | A2 A2 G4 | F8 :| %16
w: pfan- gen, der|ist von dem|Todt auff er- *|stan- den,|bitt Gott|für uns,|Al- le- lu-|ja.|
V:2
 F2 (F2 G2) A2 | F4 F4 | E3 D F4 | !fermata!C4 G4 | A4 A3 G | (E2 D2) !fermata!F4 | (D2 F2) E4 | %7
w: Kö- ni- * gin|in den|Him- * *|meln, frew|dich Ma- *|ri- * a,|den _ du|
 C4 A,4 | E4 A2 A,2 | B,4 D2 C2 | F2 C2 (D2 E2) | C2 =B,2 !fermata!C4 | A4 F4 | (D2 C2) (F2 D2) | %14
w: hast em-|pfan- gen der|ist von dem|Todt auff er- *|stan- * den,|bitt Gott|für _ uns, _|
 C2 F4 E2 | C8 :| %16
w: Al- le- lu-|ja.|
V:3
 F,2 (D,2 C,2) F,2 | D,4 D,4 | C,3 F, B,,4 | !fermata!F,4 E,4 | D,4 F,3 G, | A,2 B,2 !fermata!F,4 | %6
w: Kö- ni- * gin|in den|Him- * *|meln, frew|dich Ma- *|ri- * a,|
 B,4 C4 | F,4 D,4 | C,4 F,2 D,2 | G,4 D,2 A,2 | D,2 C,2 (B,,2 C,2) | G,4 !fermata!C,4 | F,4 D,4 | %13
w: den du|hast em-|pfan- gen der|ist von den|Todt auff er- *|stan- den,|bitt Gott|
 (B,2 F,2) B,4 | F,2 F,2 C,4 | F,8 :| %16
w: für _ uns,|Al- le- lu-|ja.|

